icon-themes/breeze_svg/sd/res/layout_head04.svg

<svg height="15.24mm" viewBox="0 0 67.999998 53.999999" width="19.191111mm" xmlns="http://www.w3.org/2000/svg" xmlns:xlink="http://www.w3.org/1999/xlink"><linearGradient id="a" gradientUnits="userSpaceOnUse" x1="798" x2="798" y1="958.21936" y2="912.21936"><stop offset="0" stop-color="#bdc3c7"/><stop offset="1" stop-color="#dadfe1"/></linearGradient><linearGradient id="b" gradientTransform="matrix(1 0 0 .96551724 0 .62069)" gradientUnits="userSpaceOnUse" x1="33" x2="33" y1="47" y2="8"><stop offset="0" stop-color="#5e6b78"/><stop offset="1" stop-color="#768492"/></linearGradient><linearGradient id="c" gradientTransform="matrix(1.04 0 0 1.3333331 -32 -306.73994)" gradientUnits="userSpaceOnUse" x1="796" x2="796" y1="923.21936" y2="917.21936"><stop offset="0" stop-color="#22a7f0"/><stop offset="1" stop-color="#19b5fe"/></linearGradient><linearGradient id="d" gradientUnits="userSpaceOnUse" x1="774" x2="818" y1="916.21936" y2="958.21936"><stop offset="0" stop-color="#383e51"/><stop offset="1" stop-color="#655c6f" stop-opacity="0"/></linearGradient><g transform="translate(-766 -908.21936)"><path d="m770.00009 912.21936h59.99982c.00005 0 .00009.00004.00009.00009v45.99982c0 .00005.00009-27.99991 0-13.99991v14h-14-45.99991c-.00005 0-.00009-.00004-.00009-.00009v-45.99982c0-.00005.00004-.00009.00009-.00009z" fill="url(#a)"/><rect fill="#2e3132" fill-opacity=".294118" height="1" ry=".000017" width="60" x="770" y="957.21936"/><rect fill="#fff" fill-opacity=".411765" height="1" ry=".000017" width="60" x="770" y="912.21936"/><rect fill="url(#c)" height="8.000001" ry=".000178" width="52" x="774" y="916.21936"/><path d="m826 916.21936v8h-52l2 2v13h-2l2 2-2 13 4 4h52v-38z" fill="url(#d)" fill-rule="evenodd" opacity=".2"/><path d="m8 18v13h25v-13zm27 0v13h25v-13zm-27 15v13h25v-13zm27 0v13h25v-13z" fill="url(#b)" transform="translate(766 908.21936)"/></g></svg>

<?xml version="1.0" encoding="UTF-8" standalone="no"?>
<!-- Created with Inkscape (http://www.inkscape.org/) -->

<svg
   xmlns:dc="http://purl.org/dc/elements/1.1/"
   xmlns:cc="http://creativecommons.org/ns#"
   xmlns:rdf="http://www.w3.org/1999/02/22-rdf-syntax-ns#"
   xmlns:svg="http://www.w3.org/2000/svg"
   xmlns="http://www.w3.org/2000/svg"
   xmlns:xlink="http://www.w3.org/1999/xlink"
   xmlns:sodipodi="http://sodipodi.sourceforge.net/DTD/sodipodi-0.dtd"
   xmlns:inkscape="http://www.inkscape.org/namespaces/inkscape"
   width="19.191111mm"
   height="15.24mm"
   viewBox="0 0 67.999998 53.999999"
   id="svg2"
   version="1.1"
   inkscape:version="0.91 r13725"
   sodipodi:docname="layout_head04.svg">
  <defs
     id="defs4">
    <linearGradient
       inkscape:collect="always"
       id="linearGradient4300-2">
      <stop
         style="stop-color:#bdc3c7;stop-opacity:1"
         offset="0"
         id="stop4302-8" />
      <stop
         style="stop-color:#dadfe1;stop-opacity:1"
         offset="1"
         id="stop4304-0" />
    </linearGradient>
    <linearGradient
       inkscape:collect="always"
       xlink:href="#linearGradient4300-2"
       id="linearGradient4316"
       x1="798"
       y1="958.21936"
       x2="798"
       y2="912.21936"
       gradientUnits="userSpaceOnUse" />
    <linearGradient
       id="linearGradient4300-7"
       inkscape:collect="always">
      <stop
         id="stop4302-2"
         offset="0"
         style="stop-color:#5e6b78;stop-opacity:1" />
      <stop
         id="stop4304-4"
         offset="1"
         style="stop-color:#768492;stop-opacity:1" />
    </linearGradient>
    <linearGradient
       inkscape:collect="always"
       xlink:href="#linearGradient4300-7"
       id="linearGradient4483"
       x1="33"
       y1="47"
       x2="33"
       y2="8"
       gradientUnits="userSpaceOnUse"
       gradientTransform="matrix(1,0,0,0.96551724,0,0.62069)" />
    <linearGradient
       inkscape:collect="always"
       xlink:href="#linearGradient4300"
       id="linearGradient4391"
       x1="796"
       y1="923.21936"
       x2="796"
       y2="917.21936"
       gradientUnits="userSpaceOnUse"
       gradientTransform="matrix(1.04,0,0,1.3333331,-32,-306.73994)" />
    <linearGradient
       id="linearGradient4300"
       inkscape:collect="always">
      <stop
         id="stop4302"
         offset="0"
         style="stop-color:#22a7f0;stop-opacity:1" />
      <stop
         id="stop4304"
         offset="1"
         style="stop-color:#19b5fe;stop-opacity:1" />
    </linearGradient>
    <linearGradient
       inkscape:collect="always"
       xlink:href="#linearGradient4410"
       id="linearGradient4173"
       x1="774"
       y1="916.21936"
       x2="818"
       y2="958.21936"
       gradientUnits="userSpaceOnUse" />
    <linearGradient
       id="linearGradient4410"
       inkscape:collect="always">
      <stop
         id="stop4412"
         offset="0"
         style="stop-color:#383e51;stop-opacity:1" />
      <stop
         id="stop4414"
         offset="1"
         style="stop-color:#655c6f;stop-opacity:0" />
    </linearGradient>
  </defs>
  <sodipodi:namedview
     id="base"
     pagecolor="#ffffff"
     bordercolor="#666666"
     borderopacity="1.0"
     inkscape:pageopacity="0.0"
     inkscape:pageshadow="2"
     inkscape:zoom="11.2"
     inkscape:cx="41.342647"
     inkscape:cy="14.158907"
     inkscape:document-units="px"
     inkscape:current-layer="layer1"
     showgrid="true"
     inkscape:window-width="1920"
     inkscape:window-height="1021"
     inkscape:window-x="-4"
     inkscape:window-y="0"
     inkscape:window-maximized="1"
     fit-margin-top="0"
     fit-margin-left="0"
     fit-margin-right="0"
     fit-margin-bottom="0"
     inkscape:object-nodes="true">
    <inkscape:grid
       type="xygrid"
       id="grid4177" />
  </sodipodi:namedview>
  <metadata
     id="metadata7">
    <rdf:RDF>
      <cc:Work
         rdf:about="">
        <dc:format>image/svg+xml</dc:format>
        <dc:type
           rdf:resource="http://purl.org/dc/dcmitype/StillImage" />
        <dc:title />
      </cc:Work>
    </rdf:RDF>
  </metadata>
  <g
     inkscape:label="Layer 1"
     inkscape:groupmode="layer"
     id="layer1"
     transform="translate(-766,-908.21936)">
    <path
       style="fill:url(#linearGradient4316);fill-opacity:1;stroke:none"
       d="m 770.00009,912.21936 59.99982,0 c 5e-5,0 9e-5,4e-5 9e-5,9e-5 l 0,45.99982 c 0,5e-5 9e-5,-27.99991 0,-13.99991 l 0,14 -14,0 -45.99991,0 c -5e-5,0 -9e-5,-4e-5 -9e-5,-9e-5 l 0,-45.99982 c 0,-5e-5 4e-5,-9e-5 9e-5,-9e-5 z"
       id="rect4179"
       inkscape:connector-curvature="0"
       sodipodi:nodetypes="sssscccssss" />
    <rect
       style="fill:#2e3132;fill-opacity:0.29411765;stroke:none"
       id="rect4181"
       width="60"
       height="1.0000004"
       x="770"
       y="957.21936"
       ry="1.7381406e-05" />
    <rect
       style="fill:#ffffff;fill-opacity:0.41176471;stroke:none"
       id="rect4181-5"
       width="60"
       height="0.99999964"
       x="770"
       y="912.21936"
       ry="1.7381395e-05" />
    <rect
       style="fill:url(#linearGradient4391);fill-opacity:1;stroke:none"
       id="rect4247"
       width="52"
       height="8.000001"
       x="774"
       y="916.21936"
       ry="0.00017767661" />
    <path
       style="fill:url(#linearGradient4173);fill-opacity:1;fill-rule:evenodd;stroke:none;stroke-width:1px;stroke-linecap:butt;stroke-linejoin:miter;stroke-opacity:1;opacity:0.2"
       d="m 826,916.21936 0,8 -52,0 2,2 0,13 -2,0 2,2 -2,13 4,4 52,0 0,-38 z"
       id="path4165"
       inkscape:connector-curvature="0"
       sodipodi:nodetypes="cccccccccccc" />
    <path
       style="fill:url(#linearGradient4483);fill-opacity:1;stroke:none"
       d="M 8 18 L 8 31 L 33 31 L 33 18 L 8 18 z M 35 18 L 35 31 L 60 31 L 60 18 L 35 18 z M 8 33 L 8 46 L 33 46 L 33 33 L 8 33 z M 35 33 L 35 46 L 60 46 L 60 33 L 35 33 z "
       transform="translate(766,908.21936)"
       id="rect4418" />
  </g>
</svg>
